X: 19
T: Isaac's Jig
C: Keith Murphy
R: jig
Z: 2017 John Chambers <jc:trillian.mit.edu>
S: handout at Roaring Jelly practice
B: Keith Murphy "Black Isle Music II" p.19 2012
M: 6/8
L: 1/8
K: Em
|:\
"Em"E3 GAB | ABd Bde | E3 GAB | "D"ABG FED |\
"Em"E3 GAB | ABd Bde | "G"d3 dcB |1 "D"ABG "(Bm)"FED :|2 "D"AcB ABc ||
|:\
"G"d3 "(D)"def | "(Em)"gBB Bcd | "C"e2G GAB | "D"ABG FED |\
"G"dBd "(D)"def | "(Em)"gaf g2f | "C"e3 edB |1 "D"AcB ABc :|2 "D"AcB AGF |]

%%sep 1 1 500

